X:992
T:Streets of Laredo
C:Traditional American
M:3/4
R:Waltz
L:1/4
%%MIDI beat 100 95 80
S:Colin Hume's website,  colinhume.com  - chords can also be printed below the stave.
Q:1/4=120
K:G
d | "G"d>c B | "D7"cdc | "G"B>AG | "G"GD2 | "Em"G>GG | "Am"ABc | "A7/C#"BAG | "D"A2 "D7"d |
"G"d>cB | "D7"cdc | "G"B>AG | "G"GD2 | "Em"G>GG | "Am"ABc | "D7"BFA | "G"G3 ||
"Am"A>AA | "D7"ABc | "G"d>ed | "/"BAG | "Am"A>AA | "D7"ABc | "G"dcB | "D7"A2d |
"G"d>c B | "D7"cdc | "G"B>AG | "G"GD2 | "Em"G>GG | "Am"ABc | "D7"BFA | "G"G3 |]

